X:1
T:O'Keeffe's
R:slide
M:12/8
L:1/8
K:Edor
|:E2B B2A FEF A2F|E2B B2A F2D DEF|
|E2B B2A FEF A2B|1 FEF A2B F2E E2D:|2 FEF A2B F2E E2A|]
|:B2e e2f e2d B2A|B2e e2f e2d B2c|
|dfe dcB AFE D2E|1 FEF A2B F2E E2A:|2 FEF A2B F2E E2D|]